!!!COM: Palestrina, Giovanni Perluigi da
!!!OPR: Aspice Domine
!!!OTL: Sanctus
**kern	**kern	**kern	**kern	**kern
*Ibass	*Itenor	*Itenor	*Icalto	*Icant
!Bassus	!Tenor 2	!Tenor 1	!Altus	!Cantus
*clefF4	*clefGv2	*clefGv2	*clefG2	*clefG2
*k[]	*k[]	*k[]	*k[]	*k[]
*D:dor	*D:dor	*D:dor	*D:dor	*D:dor
*M4/2	*M4/2	*M4/2	*M4/2	*M4/2
=1	=1	=1	=1	=1
0r	1r	0r	1.d	0a
.	[1d	.	.	.
.	.	.	2e	.
=2	=2	=2	=2	=2
0r	2d]	0r	2f	0dd
.	2e	.	2g	.
.	2f	.	2a	.
.	2g	.	2b-	.
=3	=3	=3	=3	=3
1r	1e	1A	0a	1cc
[1D	2d	2.d	.	[1ff
.	[2a	.	.	.
.	.	4e	.	.
=4	=4	=4	=4	=4
2D]	2a]	2f	0d	2ff]
2E	2g	2g	.	2ee
2F	1f	[1a	.	[1dd
2G	.	.	.	.
=5	=5	=5	=5	=5
[0A	0e	0a]	1r	2dd]
.	.	.	.	4cc
.	.	.	.	4b
.	.	.	[1e	2.cc
.	.	.	.	4b
=6	=6	=6	=6	=6
1A]	0r	1.A	1e]	4cc
.	.	.	.	4dd
.	.	.	.	1ee
1r	.	.	[1a	.
.	.	2B	.	2dd
=7	=7	=7	=7	=7
0r	1r	2c	1a]	1cc
.	.	2d	.	.
.	[1e	1e	1g	1b
=8	=8	=8	=8	=8
1.A	1e]	1c	[0cc	2.a
.	.	.	.	4b
.	[1a	1f	.	2cc
2B	.	.	.	2dd
=9	=9	=9	=9	=9
2c	1a]	1e	1cc]	1ee
2d	.	.	.	.
2.e	1g#	1r	1b	2r
.	.	.	.	[2ee
4d	.	.	.	.
=10	=10	=10	=10	=10
2c#	[0a	0A	1a	2ee]
1d	.	.	.	1ff
.	.	.	1e	.
2c#	.	.	.	[2ee
=11	=11	=11	=11	=11
1d	1a]	0d	2.f	2ee]
.	.	.	.	4dd
.	.	.	4g	4cc#
1D	1f	.	1a	1dd
=12	=12	=12	=12	=12
1.A	2e	2c	1a	0ee
.	2c	4A	.	.
.	.	4B	.	.
.	2A	4c	2r	.
.	.	4d	.	.
2A	[2c	4e	2cc	.
.	.	4c	.	.
=13	=13	=13	=13	=13
0F	4c]	2.f	2a	1r
.	4B-	.	.	.
.	4A	.	2.cc	.
.	4G	8e	.	.
.	.	8d	.	.
.	1A	1c	.	1ff
.	.	.	4b-	.
.	.	.	4a	.
.	.	.	4g	.
=14	=14	=14	=14	=14
0B-	0d	2r	2f	2dd
.	.	2f	2d	2.ff
.	.	2d	2.f	.
.	.	.	.	4ee
.	.	[2f	.	2dd
.	.	.	4g	.
=15	=15	=15	=15	=15
[0A	2r	2f]	2a	2cc
.	1c	4e	2cc	2a
.	.	4d	.	.
.	.	2e	2a	2.cc
.	2A	[2a	[2cc	.
.	.	.	.	4dd
=16	=16	=16	=16	=16
0A]	2c	4a]	4cc]	2ee
.	.	4g	4b-	.
.	2d	2f	4a	1dd
.	.	.	4g	.
.	2e	1e	1a	.
.	[2a	.	.	2cc#
=17	=17	=17	=17	=17
[0D	4a]	0d	2f	1dd
.	4g	.	.	.
.	4f	.	1a	.
.	4e	.	.	.
.	1f	.	.	2r
.	.	.	2a	[2dd
=18	=18	=18	=18	=18
0D]	0r	2r	1b-	2dd]
.	.	1d	.	2dd
.	.	.	1a	2.ff
.	.	2d	.	.
.	.	.	.	4ee
=19	=19	=19	=19	=19
0r	1r	1f	2d	2dd
.	.	.	1a	1cc
.	2r	1e	.	.
.	[2e	.	2g	2b
=20	=20	=20	=20	=20
0r	2e]	1A	2.cc	2.ee
.	2e	.	.	.
.	.	.	4b	4dd
.	1f	1r	4a	2cc
.	.	.	4g	.
.	.	.	[2a	4b
.	.	.	.	4a
=21	=21	=21	=21	=21
1r	1e	2r	2a]	2b
.	.	1e	2g#	2b
2r	1A	.	1a	2.cc
[2A	.	2e	.	.
.	.	.	.	4b
=22	=22	=22	=22	=22
2A]	1r	1f	2r	4a
.	.	.	.	4b
2A	.	.	2a	4cc
.	.	.	.	4dd
1c	1A	2e	2a	1ee
.	.	4c	[2cc	.
.	.	4d	.	.
=23	=23	=23	=23	=23
2A	2c	4e	2cc]	0r
.	.	4f#	.	.
2G	2d	1g	2.b-	.
2c	2e	.	.	.
.	.	.	4a	.
2d	2f	[2f	[2a	.
=24	=24	=24	=24	=24
1B-	2d	4f]	2a]	1r
.	.	4e	.	.
.	2d	1d	2g	.
[1A	1e	.	2a	2r
.	.	4c	2a	[2a
.	.	4B	.	.
=25	=25	=25	=25	=25
1A]	2r	1c	1e	2a]
.	1e	.	.	2a
1r	.	1A	2r	1cc
.	2e	.	[2a	.
=26	=26	=26	=26	=26
0r	1f	1d	2a]	1dd
.	.	.	2a	.
.	2e	1A	2cc	1ee
.	2c	.	2cc	.
=27	=27	=27	=27	=27
0r	2g	0r	2b	2dd
.	2a	.	2.cc	2cc
.	1f	.	.	4a
.	.	.	4b	4b
.	.	.	[2a	4cc
.	.	.	.	4a
=28	=28	=28	=28	=28
1r	1e	2r	2a]	1b
.	.	2e	2g#	.
2r	1A	2e	1a	2.cc
[2A	.	2f	.	.
.	.	.	.	4b
=29	=29	=29	=29	=29
2A]	1r	4e	2r	1a
.	.	4d	.	.
2A	.	4c	2e	.
.	.	4d	.	.
1c	2r	4e	2e	1g
.	.	4f	.	.
.	2e	2g	[2cc	.
=30	=30	=30	=30	=30
2A	2e	2c	2cc]	1r
2G	1g	2d	2b-	.
2c	.	2e	1a	2r
2d	[2f	[2a	.	[2dd
=31	=31	=31	=31	=31
1B-	4f]	2a]	1r	2dd]
.	4e	.	.	.
.	1d	2g	.	2dd
[1A	.	1a	2r	1ff
.	4c	.	[2a	.
.	4B	.	.	.
=32	=32	=32	=32	=32
1A]	2.c	2r	2a]	1ee
.	.	1A	2a	.
.	4d	.	.	.
1r	1e	.	1cc	4a
.	.	.	.	4b
.	.	2A	.	4cc
.	.	.	.	4dd
=33	=33	=33	=33	=33
0r	2r	1c	2a	2ee
.	2e	.	2g	4cc
.	.	.	.	4dd
.	2c	2A	2cc	4ee
.	.	.	.	4ff
.	2d	2G	[2b-	[2gg
=34	=34	=34	=34	=34
0r	2e	2c	4b-]	2gg]
.	.	.	4a	.
.	2f	2d	1a	2.ff
.	1d	1B-	.	.
.	.	.	.	4ee
.	.	.	2g	[2dd
=35	=35	=35	=35	=35
2r	0e	0A	0a	2dd]
1A	.	.	.	4cc
.	.	.	.	4b
.	.	.	.	1cc#
2A	.	.	.	.
=36	=36	=36	=36	=36
1B-	[0d	2r	1f	[0dd
.	.	2.d	.	.
2G	.	.	2g	.
.	.	4e	.	.
2F	.	[2f	2a	.
=37	=37	=37	=37	=37
2.B-	1d_	4f]	2b-	1dd_
.	.	4e	.	.
.	.	4d	2f	.
4A	.	4c	.	.
2G	1d_	2B-	2g	1dd_
2F#	.	2A	[2a	.
=38	=38	=38	=38	=38
1G	0d]	1B-	4a]	0dd]
.	.	.	4g	.
.	.	.	1g	.
1G	.	1B-	.	.
.	.	.	4f	.
.	.	.	4e	.
=39	=39	=39	=39	=39
[0D	[0d	[0A	[0f#	[0dd
=40	=40	=40	=40	=40
0D]	0d]	0A]	0f#]	0dd]
*	*	*	*-	*-
!! Pleni
*Itenor	*Icalto	*Icant
!Tenor	!Altus	!Cantus
*clefGv2	*clefG2	*clefG2
*k[]	*k[]	*k[]
*D:dor	*D:dor	*D:dor
*M4/2	*M4/2	*M4/2
=41	=41	=41
0r	1g	0r
.	2a	.
.	2f	.
=42	=42	=42
0r	1b-	1dd
.	1a	2ee
.	.	2cc
=43	=43	=43
0r	4d	1ff
.	4e	.
.	4f	.
.	4g	.
.	4a	1ee
.	4g	.
.	4a	.
.	4b	.
=44	=44	=44
0r	1.cc	4a
.	.	4b
.	.	4cc
.	.	4dd
.	.	4ee
.	.	4ff
.	2b-	[2gg
=45	=45	=45
1d	1a	2gg]
.	.	2ff
2e	2g	1ee
2c	[2cc	.
=46	=46	=46
1f	4cc]	1a
.	4b	.
.	1a	.
1e	.	1b
.	2g#	.
=47	=47	=47
4A	1a	1.cc
4B	.	.
4c	.	.
4d	.	.
4e	1r	.
4d	.	.
4e	.	4b
4f#	.	4a
=48	=48	=48
2.g	2r	1b
.	2g	.
4e	.	.
4f	2a	1a
4g	.	.
[2a	2f	.
=49	=49	=49
4a]	1b-	1dd
4g	.	.
1g	.	.
.	1a	1r
4f	.	.
4e	.	.
=50	=50	=50
2f	4d	0r
.	4e	.
4d	4f	.
4e	4g	.
4f	4a	.
4g	4b	.
2a	[2cc	.
=51	=51	=51
1g	2cc]	1dd
.	2b	.
1c	4cc	2ee
.	4b	.
.	4a	2cc
.	4g	.
=52	=52	=52
2r	1a	1ff
2d	.	.
2e	1g	1ee
2c	.	.
=53	=53	=53
1f	2r	4a
.	.	4b
.	2a	4cc
.	.	4dd
1e	2b	4ee
.	.	4ff#
.	2g	4gg
.	.	4ee
=54	=54	=54
4A	1cc	2ff
4B	.	.
4c	.	1ee
4d	.	.
4e	1b	.
4f#	.	.
[2g	.	4dd
.	.	4cc
=55	=55	=55
4g]	4e	2.b
4f	4f	.
2e	4g	.
.	4a	4cc
2d	4b	2dd
.	8a	.
.	8b	.
2c	2cc	2ee
=56	=56	=56
2G	2b	2dd
2A	1a	2cc
1e	.	1b
.	2g#	.
=57	=57	=57
2r	1a	0a
2f	.	.
2d	2r	.
[2f	2cc	.
=58	=58	=58
2f]	2a	0r
4e	1cc	.
4d	.	.
2c	.	.
2d	4b	.
.	4a	.
=59	=59	=59
2e	2g	2r
2.d	2a	2ff
.	4b-	2dd
8c	4a	.
8B-	.	.
2A	[2a	[2ff
=60	=60	=60
1B-	2a]	2ff]
.	2g	4ee
.	.	4dd
[1A	2a	2cc
.	2cc	2a
=61	=61	=61
1A]	2a	2.cc
.	2.cc	.
.	.	4dd
2r	.	2ee
.	4b	.
2f	4a	[2ff
.	4g	.
=62	=62	=62
2d	2f	2ff]
2e	2g	2.ee
2f	2a	.
.	.	4dd
2g	2b-	[2dd
=63	=63	=63
1e	1g	2dd]
.	.	2cc
4d	1a	1ff
4e	.	.
4f	.	.
4g	.	.
=64	=64	=64
0a	2r	0ee
.	2cc	.
.	2a	.
.	[2cc	.
=65	=65	=65
0e	2cc]	2r
.	4b	2gg
.	4a	.
.	2g	2ee
.	2e	[2gg
=66	=66	=66
0r	2g	2gg]
.	2a	4ff
.	.	4ee
.	2b	2dd
.	[2cc	2ee
=67	=67	=67
1f	4cc]	0a
.	4b-	.
.	4a	.
.	4g	.
2d	4f	.
.	4e	.
[2f	2d	.
=68	=68	=68
2f]	1.a	1r
4e	.	.
4d	.	.
2c	.	2r
2d	2a	2ff
=69	=69	=69
2G	2b-	2dd
2A	1a	1ff
1B-	.	.
.	2g	4ee
.	.	4dd
=70	=70	=70
0A	2a	2cc
.	2cc	2a
.	2a	4cc
.	.	4dd
.	[2cc	4ee
.	.	4ff
=71	=71	=71
2r	4cc]	2gg
.	8b-	.
.	8a	.
2c	2g	2ee
2A	2.a	2ff
2c	.	[2ee
.	4g	.
=72	=72	=72
2d	2f	4ee]
.	.	4dd
2G	2g	1dd
1A	1e	.
.	.	2cc#
=73	=73	=73
2r	1d	0dd
2B-	.	.
2G	1b-	.
[2B-	.	.
=74	=74	=74
4B-]	2g	1b-
4A	.	.
1G	1b-	.
.	.	2g
2F#	2a	2a
=75	=75	=75
0G	2g	0b-
.	2d	.
.	1g	.
=76	=76	=76
[0d	[0f#	[0a
=77	=77	=77
0d]	0f#]	0a]
*-	*-	*-
!! Hosanna
**kern	**kern	**kern	**kern	**kern
*Ibass	*Itenor	*Itenor	*Icalto	*Icant
!Bassus	!Tenor 2	!Tenor 1	!Altus	!Cantus
*clefF4	*clefGv2	*clefGv2	*clefG2	*clefG2
*k[]	*k[]	*k[]	*k[]	*k[]
*D:dor	*D:dor	*D:dor	*D:dor	*D:dor
*M4/2	*M4/2	*M4/2	*M4/2	*M4/2
=78	=78	=78	=78	=78
1d	0r	1r	2r	0r
.	.	.	2d	.
2d	.	2r	2.f	.
[2d	.	2d	.	.
.	.	.	4g	.
=79	=79	=79	=79	=79
2d]	1d	2f	2a	0r
4c	.	2g	2b	.
4B	.	.	.	.
4A	2e	1a	1cc	.
4G	.	.	.	.
2A	2f	.	.	.
=80	=80	=80	=80	=80
2G	2.g	2d	1b	1dd
2B	.	1g	.	.
.	4f	.	.	.
2c	2e	.	1a	2ee
[2d	2d	2f	.	2ff
=81	=81	=81	=81	=81
2d]	1g	1e	1b	1gg
4c	.	.	.	.
4B	.	.	.	.
1c#	2.a	1A	2r	1ee
.	.	.	[2a	.
.	4g	.	.	.
=82	=82	=82	=82	=82
1d	4f	0r	2a]	2.ff
.	4e	.	.	.
.	4d	.	2f	.
.	4c	.	.	4ee
1r	2B	.	2g	2dd
.	2A	.	[2a	2cc
=83	=83	=83	=83	=83
1r	1e	1r	2a]	1b
.	.	.	2g#	.
2r	1A	1e	1a	1a
[2A	.	.	.	.
=84	=84	=84	=84	=84
2A]	2r	2f	1r	0r
2B	2d	2g	.	.
2c	2e	1a	2r	.
2d	2f	.	2a	.
=85	=85	=85	=85	=85
2B	1g	2d	2b	0r
2.c	.	2.e	2g	.
.	2e	.	1cc	.
4B	.	4d	.	.
4A	[2f	4c	.	.
4G	.	4B	.	.
=86	=86	=86	=86	=86
2F	4f]	2A	2cc	2r
.	4e	.	.	.
2.G	4d	2B-	1b-	2dd
.	4c	.	.	.
.	4B-	2G	.	2ee
4F	4c	.	.	.
2D	[2d	2A	2a	2ff
=87	=87	=87	=87	=87
1E	2d]	1e	1g	2gg
.	2c#	.	.	2ee
[1D	[1d	1A	2r	2.ff
.	.	.	2a	.
.	.	.	.	4ee
=88	=88	=88	=88	=88
1D]	0d]	2r	2a	4dd
.	.	.	.	4cc
.	.	2a	2a	4dd
.	.	.	.	4ee
2r	.	2a	2f	[1ff
2d	.	2a	2d	.
=89	=89	=89	=89	=89
2d	0r	2f	2a	1ff]
2d	.	2d	2b	.
2.e	.	2.g	2.cc	1ee
4d	.	4f	4b	.
=90	=90	=90	=90	=90
2c	2r	2e	2a	1r
2B	2d	2d	2g#	.
[1A	2c	[1e	1a	2r
.	2A	.	.	2ee
=91	=91	=91	=91	=91
0A]	2.c	1e]	1r	2ee
.	.	.	.	2ee
.	4d	.	.	.
.	2e	1r	1a	2cc
.	2f	.	.	2a
=92	=92	=92	=92	=92
0r	2c	1r	2a	2ee
.	2d	.	2a	2ff
.	1G	2r	2.b-	2.gg
.	.	2d	.	.
.	.	.	4a	4ff
=93	=93	=93	=93	=93
0r	2r	2e	2g	2ee
.	2d	2f	2f	1dd
.	1e	1g	1e	.
.	.	.	.	2cc#
=94	=94	=94	=94	=94
2r	1f	1a	2d	1dd
2d	.	.	1a	.
2d	2d	1f	.	2r
2d	2f	.	2b	2dd
=95	=95	=95	=95	=95
2c	2g	1e	1cc	1ee
2A	2.a	.	.	.
[1d	.	1r	1a	1ff
.	4g	.	.	.
.	[2f	.	.	.
=96	=96	=96	=96	=96
2d]	2f]	1d	2f	1dd
4c	4e	.	2g	.
4B-	4d	.	.	.
1A	4c#	1e	[1a	1r
.	4B	.	.	.
.	2c#	.	.	.
=97	=97	=97	=97	=97
1F	2d	1f	1a]	1r
.	2A	.	.	.
2.G	1B	1d	2r	1dd
.	.	.	2g	.
4F	.	.	.	.
=98	=98	=98	=98	=98
1E	1c#	1r	2g	1ee
.	.	.	2g	.
1D	[1d	2r	2f	1ff
.	.	2a	2d	.
=99	=99	=99	=99	=99
2r	1d]	2a	2.f	2dd
2d	.	2a	.	2ff
.	.	.	4g	.
2d	1r	2f	1a	2ff
[2d	.	2d	.	[2ff
=100	=100	=100	=100	=100
2d]	1d	2.f	1a	2ff]
4c	.	.	.	4ee
4B-	.	4g	.	4dd
1A	2e	1a	2r	2cc
.	2f	.	2a	2a
=101	=101	=101	=101	=101
1G	2.g	1d	1b-	1dd
.	4f	.	.	.
2A	2e	2c	[1a	2r
2D	[2d	2f	.	2dd
=102	=102	=102	=102	=102
1A	2d]	2e	1a]	2ee
.	2c#	2A	.	2ff
[1G	1d	2r	[1b-	2.gg
.	.	2d	.	.
.	.	.	.	4ff
=103	=103	=103	=103	=103
2G]	2r	2g	2b-]	4ee
.	.	.	.	4dd
2D	2d	2f	2a	1dd
1A	1e	1e	1a	.
.	.	.	.	2cc#
=104	=104	=104	=104	=104
2D	2.f	2d	1a	1dd
2d	.	2d	.	.
.	4g	.	.	.
2c#	1a	2e	2r	1r
2d	.	2f#	2a	.
=105	=105	=105	=105	=105
1G	2r	2.g	1b	2r
.	2.g	.	.	2dd
.	.	4f	.	.
2c	.	2e	2cc	2ee
.	4e	.	.	.
2d	2a	4d	2a	2ff#
.	.	4c	.	.
=106	=106	=106	=106	=106
0G	2g	4B	0b	2.gg
.	.	4A	.	.
.	2d	2B	.	.
.	.	.	.	4ff
.	1g	2G	.	2ee
.	.	[2g	.	2dd
=107	=107	=107	=107	=107
0A	2e	2g]	0a	2cc#
.	2.a	2f	.	1dd
.	.	1e	.	.
.	4g	.	.	.
.	2e	.	.	2cc#
=108	=108	=108	=108	=108
[0D	[0f#	[0d	[0a	[0dd
=109	=109	=109	=109	=109
0D]	0f#]	0d]	0a]	0dd]
==	==	==	==	==
*-	*-	*-	*-	*-
!!!CDT: 1525/^1526/-1594/2/2
!!!OCY: Italia
!!!AGN: Mass (Parody)
!!!AST: renaissance, vocal
!!!ASW: Motet (Jacquet)
!!!PWK: Masses, Book 2
!!!RNB: Cadence finals: A
!!!YOR: Le Opere Complete, v. 4, p. 91
!!!YOO: Rome, Italy: Fratelli Scalera
!!!END: 1992//
!!!EED: John Miller
!!!YEC: Copyright 2000, John Miller
!!!YEN: United States of America
!!!YEM: Rights to all derivative electronic formats reserved.
!!!YEM: Refer to licensing agreement for further details.
!!!YEM: This file must be accompanied by the licensing agreement.
!!!YEM: A copy of the licensing agreement may be found at http://www.music-cog.ohio-state.edu/HumdrumDatabases/Palestrina/license.txt
!!!EMD: converted to Humdrum by Bret Aarden
